public/icons/devices.svg

<svg width="24" height="24" viewBox="0 0 24 24" fill="none" xmlns="http://www.w3.org/2000/svg">
<path d="M5 2.8999H15C16.6569 2.8999 18 4.24305 18 5.8999V8.25006H14.75C13.3693 8.25006 12.25 9.36935 12.25 10.7501V15.6999H11V17.0999C11.5523 17.0999 12 17.5476 12 18.0999C12 18.6522 11.5523 19.0999 11 19.0999H6.80001C6.24773 19.0999 5.80001 18.6522 5.80001 18.0999C5.80001 17.5476 6.24773 17.0999 6.80001 17.0999H9.00001V15.6999L5 15.6999C3.34315 15.6999 2 14.3568 2 12.6999V5.89991C2 4.24305 3.34315 2.8999 5 2.8999Z" fill="#1574E5"/>
<path d="M15 9H15.1338C15.3067 9.2989 15.6299 9.5 16 9.5H18C18.3701 9.5 18.6933 9.2989 18.8662 9H19C20.1046 9 21 9.89543 21 11V19C21 20.1046 20.1046 21 19 21H15C13.8954 21 13 20.1046 13 19V11C13 9.89543 13.8954 9 15 9Z" fill="#1574E5"/>
</svg>

<svg xmlns="http://www.w3.org/2000/svg" width="24" height="24" fill="none"><path fill="#1574E5" d="M5 2.9h10a3 3 0 0 1 3 3v2.35h-3.25a2.5 2.5 0 0 0-2.5 2.5v4.95H11v1.4a1 1 0 1 1 0 2H6.8a1 1 0 1 1 0-2H9v-1.4H5a3 3 0 0 1-3-3V5.9a3 3 0 0 1 3-3"/><path fill="#1574E5" d="M15 9h.134a1 1 0 0 0 .866.5h2a1 1 0 0 0 .866-.5H19a2 2 0 0 1 2 2v8a2 2 0 0 1-2 2h-4a2 2 0 0 1-2-2v-8a2 2 0 0 1 2-2"/></svg>
